packages/astro-components-stencil/src/icons/wb-sunny.svg

<svg width="24" height="24" viewBox="0 0 24 24" fill="none" xmlns="http://www.w3.org/2000/svg">
<path fill-rule="evenodd" clip-rule="evenodd" d="M12 0.549805H12.01C12.56 0.549805 13 0.989805 13 1.5398V2.5098C13 3.0598 12.56 3.4998 12 3.4898H11.99C11.44 3.4898 11 3.0498 11 2.4998V1.5398C11 0.989805 11.44 0.549805 12 0.549805ZM6.05 4.1398L5.66 3.7498C5.27 3.3598 4.64 3.3698 4.26 3.7498L4.25 3.7598C3.86 4.1498 3.86 4.7798 4.25 5.1598L4.64 5.5498C5.03 5.93981 5.65 5.93981 6.04 5.5498L6.05 5.5398C6.44 5.1598 6.44 4.5198 6.05 4.1398ZM3.01 10.4998H1.99C1.44 10.4998 1 10.9398 1 11.4898V11.4998C1 12.0498 1.44 12.4898 1.99 12.4898H3C3.56 12.4998 4 12.0598 4 11.5098V11.4998C4 10.9398 3.56 10.4998 3.01 10.4998ZM19.75 3.7598C19.36 3.3698 18.73 3.3698 18.34 3.7498L17.95 4.1398C17.56 4.5298 17.56 5.1598 17.95 5.5398L17.96 5.5498C18.35 5.9398 18.98 5.9398 19.36 5.5498L19.75 5.1598C20.14 4.7698 20.14 4.1498 19.75 3.7598ZM18.33 19.2498L17.94 18.8598C17.55 18.4698 17.55 17.8498 17.95 17.4498C18.33 17.0698 18.96 17.0598 19.35 17.4498L19.74 17.8398C20.13 18.2298 20.13 18.8598 19.74 19.2498C19.35 19.6398 18.72 19.6398 18.33 19.2498ZM20 11.4898V11.4998C20 12.0498 20.44 12.4898 20.99 12.4898H22C22.55 12.4898 22.99 12.0498 22.99 11.4998V11.4898C22.99 10.9398 22.55 10.4998 22 10.4998H20.99C20.44 10.4998 20 10.9398 20 11.4898ZM6 11.4998C6 8.1898 8.69 5.4998 12 5.4998C15.31 5.4998 18 8.1898 18 11.4998C18 14.8098 15.31 17.4998 12 17.4998C8.69 17.4998 6 14.8098 6 11.4998ZM11.99 22.4498H12C12.55 22.4498 12.99 22.0098 12.99 21.4598V20.4998C12.99 19.9498 12.55 19.5098 12 19.5098H11.99C11.44 19.5098 11 19.9498 11 20.4998V21.4598C11 22.0098 11.44 22.4498 11.99 22.4498ZM5.66 19.2398C5.27 19.6298 4.64 19.6298 4.25 19.2398C3.86 18.8498 3.86 18.2298 4.24 17.8298L4.63 17.4398C5.02 17.0498 5.65 17.0498 6.04 17.4398L6.05 17.4498C6.43 17.8298 6.44 18.4598 6.05 18.8498L5.66 19.2398Z" fill="black"/>
</svg>

<svg xmlns="http://www.w3.org/2000/svg" viewBox="0 0 24 24"><g xmlns="http://www.w3.org/2000/svg" id="wb-sunny" fill-rule="nonzero">
            <path d="M6.05 4.14l-.39-.39a.993.993 0 00-1.4 0l-.01.01a.984.984 0 000 1.4l.39.39c.39.39 1.01.39 1.4 0l.01-.01a.984.984 0 000-1.4zM3.01 10.5H1.99c-.55 0-.99.44-.99.99v.01c0 .55.44.99.99.99H3c.56.01 1-.43 1-.98v-.01c0-.56-.44-1-.99-1zm9-9.95H12c-.56 0-1 .44-1 .99v.96c0 .55.44.99.99.99H12c.56.01 1-.43 1-.98v-.97c0-.55-.44-.99-.99-.99zm7.74 3.21c-.39-.39-1.02-.39-1.41-.01l-.39.39a.984.984 0 000 1.4l.01.01c.39.39 1.02.39 1.4 0l.39-.39a.984.984 0 000-1.4zm-1.81 15.1l.39.39a.996.996 0 101.41-1.41l-.39-.39a.993.993 0 00-1.4 0c-.4.4-.4 1.02-.01 1.41zM20 11.49v.01c0 .55.44.99.99.99H22c.55 0 .99-.44.99-.99v-.01c0-.55-.44-.99-.99-.99h-1.01c-.55 0-.99.44-.99.99zM12 5.5c-3.31 0-6 2.69-6 6s2.69 6 6 6 6-2.69 6-6-2.69-6-6-6zm-.01 16.95H12c.55 0 .99-.44.99-.99v-.96c0-.55-.44-.99-.99-.99h-.01c-.55 0-.99.44-.99.99v.96c0 .55.44.99.99.99zm-7.74-3.21c.39.39 1.02.39 1.41 0l.39-.39a.993.993 0 000-1.4l-.01-.01a.996.996 0 00-1.41 0l-.39.39c-.38.4-.38 1.02.01 1.41z"/>
        </g></svg>
